X:159
M:4/4
L:1/4
K:F
D2 A F | G2 A2 | D3/2 E/ F G | (F E) D2 | D2 A F | G2 A2 | A3/2 G/ A =B | (c =B) A2 | d2 c d | (c B) A2 | c3/2 B/ A B | (A G) F2 | !sintro!A2 D E | (F2 E2) | D4 !eintro!|]
